svgs/light/taco.svg

<svg xmlns="http://www.w3.org/2000/svg" viewBox="0 0 512 512"><!--! Font Awesome Pro 6.0.0-alpha3 by @fontawesome - https://fontawesome.com License - https://fontawesome.com/license (Commercial License) --><path d="M3.875 227.9c8.75-23.97 29.47-36.33 44.59-45.34c18.97-11.36 18.97-11.36 24.03-35.39c3.688-17.91 8.781-42.52 27.59-57.95c15.19-12.38 32.81-13.8 44.72-13.8c10.72 0 18.56 .5313 24.75 .9375c13.81 .9219 13.97 .9531 29.28-13.67c21.66-20.91 40.25-30.67 58.56-30.67c23.81 0 41.53 17.03 55.75 30.72c15.16 14.58 14.97 14.56 29.09 13.66c6.188-.4219 14.09-.9687 24.91-.9687c11.91 0 29.53 1.422 44.66 13.77c18.78 15.44 23.91 40.06 27.66 58.03c5.188 24.05 5.188 24.05 24.03 35.36c15.12 9.016 35.88 21.38 44.59 45.33c3.031 8.312-1.25 17.48-9.562 20.52c-1.812 .6562-3.656 .9687-5.469 .9687c-6.531 0-12.66-4.031-15.03-10.52c-4.5-12.31-15.66-19.72-30.94-28.84c-27.62-16.56-31.62-22.33-38.94-56.17c-3.094-14.91-6.594-31.67-16.59-39.91c-5.594-4.562-12.94-6.531-24.41-6.531c-9.844 0-17.06 .5-22.69 .8906c-23.16 1.609-30.28-.1875-53.5-22.52C277.7 73.03 267.6 64 257.4 64C248.2 64 235.1 71.33 221 85.77C197.7 108 190.5 109.9 167.4 108.3C161.8 107.9 154.6 107.4 144.8 107.4c-11.34 0-18.88 2.031-24.47 6.578c-10 8.219-13.47 24.95-16.53 39.72c-7.156 33.89-11.16 39.67-38.94 56.31C52.63 217.3 38.78 225.6 33.94 238.9c-3.031 8.297-12.16 12.58-20.5 9.547C5.125 245.4 .8438 236.2 3.875 227.9zM111.1 352c-8.873 0-15.1 7.125-15.1 16s7.133 15.99 16.01 15.99c8.875 0 15.99-7.116 15.99-15.99S120.9 352 111.1 352zM175.1 288c-8.875 0-16 7.125-16 16s7.135 15.99 16.01 15.99c8.873 0 15.99-7.11 15.99-15.99S184.9 288 175.1 288zM495.6 459.7c-11.41 12.91-27.49 20.32-44.15 20.32H60.51c-16.66 0-32.75-7.406-44.16-20.32c-12.42-14.06-18.2-33.01-15.84-52.05c17.77-141.2 127.6-247.6 255.5-247.6s237.7 106.4 255.5 247.7C513.9 426.6 508.1 445.6 495.6 459.7zM479.7 411.6c-15.62-124.1-109.9-219.6-223.8-219.6S47.89 287.5 32.27 411.6C29.89 430.8 43.39 448 60.51 448h390.1C468.6 448 482.1 430.8 479.7 411.6z"/></svg>

<svg xmlns="http://www.w3.org/2000/svg" viewBox="0 0 512 512"><!-- Font Awesome Pro 6.0.0-alpha2 by @fontawesome - https://fontawesome.com License - https://fontawesome.com/license (Commercial License) --><path d="M3.875 227.891C12.625 203.922 33.344 191.562 48.469 182.547C67.438 171.187 67.438 171.187 72.5 147.156C76.188 129.25 81.281 104.641 100.094 89.203C115.281 76.828 132.906 75.406 144.813 75.406C155.531 75.406 163.375 75.938 169.563 76.344C183.375 77.266 183.531 77.297 198.844 62.672C220.5 41.766 239.125 32 257.438 32C281.25 32 298.938 49.031 313.156 62.719C328.313 77.297 328.125 77.281 342.25 76.375C348.438 75.953 356.344 75.406 367.156 75.406C379.063 75.406 396.688 76.828 411.813 89.172C430.594 104.609 435.719 129.234 439.469 147.203C444.656 171.25 444.656 171.25 463.5 182.563C478.625 191.578 499.375 203.938 508.094 227.891C511.125 236.203 506.844 245.375 498.531 248.406C496.719 249.063 494.875 249.375 493.063 249.375C486.531 249.375 480.406 245.344 478.031 238.859C473.531 226.547 462.375 219.141 447.094 210.016C419.469 193.453 415.469 187.688 408.156 153.844C405.063 138.938 401.563 122.172 391.563 113.938C385.969 109.375 378.625 107.406 367.156 107.406C357.313 107.406 350.094 107.906 344.469 108.297C321.313 109.906 314.188 108.109 290.969 85.781C277.719 73.031 267.563 64 257.438 64C248.219 64 235.969 71.328 221.031 85.766C197.656 108.047 190.5 109.859 167.406 108.266C161.781 107.891 154.594 107.406 144.813 107.406C133.469 107.406 125.938 109.438 120.344 113.984C110.344 122.203 106.875 138.938 103.813 153.703C96.656 187.594 92.656 193.375 64.875 210.016C52.625 217.312 38.781 225.562 33.938 238.859C30.906 247.156 21.781 251.438 13.438 248.406C5.125 245.375 0.844 236.203 3.875 227.891ZM111.988 352C103.115 352 95.99 359.125 95.99 368S103.115 384 111.988 384C120.863 384 127.988 376.875 127.988 368S120.863 352 111.988 352ZM175.984 288C167.109 288 159.984 295.125 159.984 304S167.109 320 175.984 320C184.857 320 191.982 312.875 191.982 304S184.857 288 175.984 288ZM495.645 459.68C484.236 472.594 468.141 480 451.482 480H60.514C43.856 480 27.76 472.594 16.35 459.68C3.928 445.619 -1.844 426.666 0.52 407.627C18.289 266.457 128.121 160 255.998 160S493.707 266.457 511.482 407.682C513.84 426.666 508.066 445.619 495.645 459.68ZM479.731 411.625C464.106 287.5 369.863 192 255.998 192S47.891 287.5 32.268 411.625C29.893 430.75 43.391 448 60.514 448H451.482C468.606 448 482.104 430.75 479.731 411.625Z"/></svg>
